X: 31610
T: Pandeirada De Entrimo
R: reel
M: 4/4
K: Dminor
A2|"Dm"d3d "A"^c>de>f|"Dm"d>AF>G "F"A>B=c>B|"Dm"BzA2 "Dm"z2F2|
"Dm"A3A "Gm"B>AG>F|"C"G>FE>D "A"^C>DE>F|"Dm"DzD2 "Dm"z2:|
(3AAA|"Dm"d>ef>e "Dm"dz (3AAA|"F"A>Bc>B "Dm"B>A (3aaa|
"Dm"(3aaa g>f "Gm"g2(3ggg|"C"(3ggg f>e "Dm"d2:|

